public/icons/tokens/ghst.svg

<svg width="256" height="256" viewBox="0 0 256 256" fill="none" xmlns="http://www.w3.org/2000/svg">
<path d="M249.446 78.7866H242.872C242.872 70.5536 242.872 60.7437 242.872 52.5107C239.6 52.5107 233.015 52.5107 229.745 52.5107C229.745 49.238 229.745 42.6537 229.745 39.383C226.472 39.383 219.888 39.383 216.617 39.383C216.617 36.1103 216.617 29.526 216.617 26.2554C213.344 26.2554 206.76 26.2554 203.489 26.2554C203.489 22.9827 203.489 16.3983 203.489 13.1277C195.262 13.1277 185.461 13.1277 177.234 13.1277C177.234 9.85497 177.234 3.27066 177.234 0C144.554 0 111.466 0 78.7866 0C78.7866 3.2727 78.7866 9.85702 78.7866 13.1277C70.5597 13.1277 60.758 13.1277 52.5312 13.1277C52.5312 16.4004 52.5312 22.9847 52.5312 26.2554C49.2585 26.2554 42.6742 26.2554 39.4035 26.2554C39.4035 29.5281 39.4035 36.1124 39.4035 39.383C36.1308 39.383 29.5465 39.383 26.2758 39.383C26.2758 42.6557 26.2758 49.2401 26.2758 52.5107C22.999 52.5107 16.4045 52.5107 13.1277 52.5107C13.1277 60.7437 13.1277 70.5536 13.1277 78.7866C9.85498 78.7866 3.27066 78.7866 0 78.7866C0 85.9607 0 94.7466 0 101.908C85.2685 101.908 170.732 101.908 256 101.908C256 94.7507 256 85.9566 256 78.7866H249.446Z" fill="#FA34F3"/>
<path d="M249.446 98.4678C166.351 98.4678 83.0956 98.4678 0 98.4678C0 115.997 0 135.102 0 152.678C85.2685 152.678 170.732 152.678 256 152.678C256 135.086 256 116.011 256 98.4678H249.446Z" fill="#CF15F9"/>
<path d="M249.446 137.851C166.351 137.851 83.0956 137.851 0 137.851C0 150.635 0 164.45 0 177.234C3.2727 177.234 9.85703 177.234 13.1277 177.234V183.316C89.6348 183.316 166.365 183.316 242.872 183.316V177.234C246.145 177.234 252.729 177.234 256 177.234C256 164.45 256 150.635 256 137.851H249.446Z" fill="#AC15F9"/>
<path d="M236.319 177.234C161.982 177.234 87.4637 177.234 13.1274 177.234C13.1274 185.461 13.1274 195.262 13.1274 203.489C16.4042 203.489 22.9988 203.489 26.2756 203.489C26.2756 206.762 26.2756 213.346 26.2756 216.617C29.5483 216.617 36.1326 216.617 39.4033 216.617L39.6286 225.116C98.5229 225.116 157.722 225.116 216.617 225.116V216.617C219.889 216.617 226.474 216.617 229.744 216.617C229.744 213.344 229.744 206.76 229.744 203.489C233.017 203.489 239.601 203.489 242.872 203.489C242.872 195.262 242.872 185.461 242.872 177.234H236.319Z" fill="#8F17F9"/>
<path d="M124.723 256C109.705 256 93.8044 256 78.7864 256C78.7864 252.727 78.7864 246.143 78.7864 242.872C70.5595 242.872 60.7578 242.872 52.531 242.872C52.531 239.6 52.531 233.015 52.531 229.745C49.2583 229.745 42.674 229.745 39.4033 229.745C39.4033 226.472 39.4033 219.888 39.4033 216.617C98.398 216.617 157.622 216.617 216.617 216.617C216.617 219.89 216.617 226.474 216.617 229.745C213.344 229.745 206.76 229.745 203.489 229.745C203.489 233.017 203.489 239.602 203.489 242.872C195.262 242.872 185.461 242.872 177.234 242.872C177.234 246.145 177.234 252.729 177.234 256C169.007 256 159.205 256 150.978 256C142.752 256 132.948 256 124.723 256Z" fill="#7E18F8"/>
<path d="M166.134 148.173V152.678C168.385 152.678 172.915 152.678 175.165 152.678C175.165 148.658 175.165 143.161 175.165 139.141C172.915 139.141 168.385 139.141 166.134 139.141C166.134 141.392 166.134 145.922 166.134 148.173Z" fill="white"/>
<path d="M157.102 152.678C149.858 152.678 141.756 152.678 134.513 152.678C134.513 154.935 134.513 159.476 134.513 161.731C140.171 161.731 146.917 161.731 152.576 161.731C152.576 163.981 152.576 168.512 152.576 170.762C154.827 170.762 159.357 170.762 161.608 170.762C161.608 168.512 161.608 163.981 161.608 161.731H166.134C166.134 159.474 166.134 154.933 166.134 152.678C163.883 152.678 159.353 152.678 157.102 152.678Z" fill="white"/>
<path d="M143.544 139.141C150.788 139.141 158.89 139.141 166.134 139.141C166.134 136.884 166.134 132.344 166.134 130.089C158.89 130.089 150.788 130.089 143.544 130.089C143.544 132.346 143.544 136.886 143.544 139.141Z" fill="white"/>
<path d="M134.513 116.531C134.513 120.558 134.513 126.063 134.513 130.089C136.763 130.089 141.294 130.089 143.544 130.089C143.544 126.063 143.544 120.558 143.544 116.531C141.294 116.531 136.763 116.531 134.513 116.531Z" fill="white"/>
<path d="M166.134 107.5H161.608C161.608 105.249 161.608 100.719 161.608 98.4678C159.357 98.4678 154.827 98.4678 152.576 98.4678C152.576 100.719 152.576 105.249 152.576 107.5C150.325 107.5 145.795 107.5 143.544 107.5C143.544 109.75 143.544 114.28 143.544 116.531C153.883 116.531 164.827 116.531 175.165 116.531C175.165 114.28 175.165 109.75 175.165 107.5C172.915 107.5 168.385 107.5 166.134 107.5Z" fill="white"/>
<path d="M224.871 107.5C211.477 107.5 197.612 107.5 184.218 107.5C184.218 109.75 184.218 114.28 184.218 116.531C189.876 116.531 196.623 116.531 202.281 116.531C202.281 131.457 202.281 146.805 202.281 161.731C204.532 161.731 209.062 161.731 211.313 161.731C211.313 146.805 211.313 131.457 211.313 116.531C216.98 116.531 223.732 116.531 229.397 116.531C229.397 114.28 229.397 109.75 229.397 107.5H224.871Z" fill="white"/>
<path d="M116.429 107.5C116.429 114.743 116.429 122.845 116.429 130.089C109.185 130.089 101.083 130.089 93.8393 130.089C93.8393 122.845 93.8393 114.743 93.8393 107.5C91.5885 107.5 87.0584 107.5 84.8076 107.5C84.8076 125.458 84.8076 143.772 84.8076 161.731C87.0584 161.731 91.5885 161.731 93.8393 161.731C93.8393 154.487 93.8393 146.385 93.8393 139.141C101.083 139.141 109.185 139.141 116.429 139.141C116.429 146.385 116.429 154.487 116.429 161.731C118.68 161.731 123.21 161.731 125.46 161.731C125.46 143.772 125.46 125.458 125.46 107.5C123.21 107.5 118.68 107.5 116.429 107.5Z" fill="white"/>
<path d="M66.7239 107.5C57.9298 107.5 48.423 107.5 39.6289 107.5C39.6289 109.75 39.6289 114.28 39.6289 116.531C51.5012 116.531 63.9039 116.531 75.7761 116.531C75.7761 114.28 75.7761 109.75 75.7761 107.5C73.5192 107.5 68.9788 107.5 66.7239 107.5Z" fill="white"/>
<path d="M75.7762 152.678C75.7762 145.435 75.7762 137.333 75.7762 130.089C66.9739 130.089 57.4629 130.089 48.6606 130.089C48.6606 132.346 48.6606 136.886 48.6606 139.141C54.3193 139.141 61.0654 139.141 66.724 139.141C66.724 143.161 66.724 148.658 66.724 152.678C68.9809 152.678 73.5213 152.678 75.7762 152.678Z" fill="white"/>
<path d="M39.6289 161.731C48.423 161.731 57.9298 161.731 66.7239 161.731C66.7239 159.474 66.7239 154.933 66.7239 152.678C57.9298 152.678 48.423 152.678 39.6289 152.678C39.6289 154.935 39.6289 159.476 39.6289 161.731Z" fill="white"/>
<path d="M30.5767 116.531C30.5767 128.403 30.5767 140.806 30.5767 152.678C32.8336 152.678 37.374 152.678 39.6288 152.678C39.6288 140.806 39.6288 128.403 39.6288 116.531C37.3719 116.531 32.8315 116.531 30.5767 116.531Z" fill="white"/>
</svg>

<svg width="256" height="256" fill="none" xmlns="http://www.w3.org/2000/svg"><path d="M249.446 78.787h-6.574V52.51h-13.127V39.383h-13.128V26.255h-13.128V13.128h-26.255V0H78.787v13.128H52.53v13.127H39.404v13.128H26.276v13.128H13.128v26.276H0v23.121h256V78.787h-6.554Z" fill="#FA34F3"/><path d="M249.446 98.468H0v54.21h256v-54.21h-6.554Z" fill="#CF15F9"/><path d="M249.446 137.851H0v39.383h13.128v6.082h229.744v-6.082H256v-39.383h-6.554Z" fill="#AC15F9"/><path d="M236.319 177.234H13.127v26.255h13.149v13.128h13.127l.226 8.499h176.988v-8.499h13.127v-13.128h13.128v-26.255h-6.553Z" fill="#8F17F9"/><path d="M124.723 256H78.786v-13.128H52.531v-13.127H39.403v-13.128h177.214v13.128h-13.128v13.127h-26.255V256h-52.511Z" fill="#7E18F8"/><path d="M166.134 148.173v4.505h9.031v-13.537h-9.031v9.032Zm-9.032 4.505h-22.589v9.053h18.063v9.031h9.032v-9.031h4.526v-9.053h-9.032Zm-13.558-13.537h22.59v-9.052h-22.59v9.052Zm-9.031-22.61v13.558h9.031v-13.558h-9.031Zm31.621-9.031h-4.526v-9.032h-9.032v9.032h-9.032v9.031h31.621V107.5h-9.031Zm58.737 0h-40.653v9.031h18.063v45.2h9.032v-45.2h18.084V107.5h-4.526Zm-108.442 0v22.589h-22.59V107.5h-9.031v54.231h9.031v-22.59h22.59v22.59h9.031V107.5h-9.031Zm-49.705 0H39.629v9.031h36.147V107.5h-9.052Zm9.052 45.178v-22.589H48.661v9.052h18.063v13.537h9.052Zm-36.147 9.053h27.095v-9.053H39.629v9.053Zm-9.052-45.2v36.147h9.052v-36.147h-9.052Z" fill="#fff"/></svg>
